packages/assets/files/fram/colors/images/CrashSmall.svg

<svg width="184" height="146" viewBox="0 0 184 146" fill="none" xmlns="http://www.w3.org/2000/svg">
<path d="M48.1938 82.5926C48.0989 82.5926 48.0093 82.524 47.9882 82.4238C47.0392 78.0338 46.6122 71.4012 46.4224 66.6155C46.3591 65.0273 46.3117 63.3915 46.2853 61.7558C46.2695 60.9538 46.57 60.1993 47.1341 59.6241C47.6982 59.049 48.4521 58.7324 49.2534 58.7324H65.2803C65.3963 58.7324 65.4911 58.8274 65.4911 58.9435C65.4911 59.0596 65.3963 59.1545 65.2803 59.1545H49.2534C48.5628 59.1545 47.9196 59.4236 47.4346 59.9196C46.9549 60.4103 46.6965 61.0594 46.7071 61.7506C46.7334 63.381 46.7756 65.0114 46.8442 66.5996C47.0339 71.3696 47.461 77.9757 48.3994 82.3394C48.4257 82.4554 48.3519 82.5663 48.236 82.5926C48.2254 82.5926 48.2096 82.5926 48.1938 82.5926Z" fill="#005685"/>
<path d="M135.429 87.2729H50.7191C49.7332 87.2729 48.9424 86.1015 48.2992 83.6901C48.2676 83.5793 48.3361 83.4632 48.4468 83.4316C48.5575 83.3999 48.6735 83.4685 48.7052 83.5793C49.2745 85.7163 49.9704 86.8455 50.7191 86.8455H135.429C137.401 86.8455 139.009 85.2414 139.009 83.2733V64.1303C139.009 62.8059 138.281 61.5975 137.116 60.9802L134.475 59.5714C133.979 59.297 133.4 59.1545 132.799 59.1545H121.195C121.079 59.1545 120.984 59.0596 120.984 58.9435C120.984 58.8274 121.079 58.7324 121.195 58.7324H132.799C133.468 58.7324 134.117 58.896 134.675 59.202L137.311 60.6108C138.619 61.3073 139.425 62.6581 139.425 64.1355V83.2786C139.431 85.4789 137.633 87.2729 135.429 87.2729Z" fill="#005685"/>
<path d="M111.015 59.1584H75.2232C75.1072 59.1584 75.0123 59.0635 75.0123 58.9474C75.0123 58.8313 75.1072 58.7363 75.2232 58.7363H111.015C111.131 58.7363 111.226 58.8313 111.226 58.9474C111.226 59.0635 111.131 59.1584 111.015 59.1584Z" fill="#005685"/>
<path d="M116.223 66.4154C113.171 66.4154 110.683 63.9301 110.683 60.8698C110.683 57.8147 113.166 55.3242 116.223 55.3242C119.276 55.3242 121.764 57.8094 121.764 60.8698C121.764 63.9249 119.281 66.4154 116.223 66.4154ZM116.223 55.7463C113.403 55.7463 111.104 58.0469 111.104 60.8698C111.104 63.6927 113.403 65.9932 116.223 65.9932C119.044 65.9932 121.342 63.6927 121.342 60.8698C121.342 58.0416 119.044 55.7463 116.223 55.7463Z" fill="#005685"/>
<path d="M70.2465 66.4154C67.194 66.4154 64.7056 63.9301 64.7056 60.8698C64.7056 57.8147 67.1887 55.3242 70.2465 55.3242C73.2989 55.3242 75.7873 57.8094 75.7873 60.8698C75.7873 63.9249 73.3042 66.4154 70.2465 66.4154ZM70.2465 55.7463C67.4259 55.7463 65.1274 58.0469 65.1274 60.8698C65.1274 63.6927 67.4259 65.9932 70.2465 65.9932C73.067 65.9932 75.3655 63.6927 75.3655 60.8698C75.3655 58.0416 73.0722 55.7463 70.2465 55.7463Z" fill="#005685"/>
<path d="M136.542 84.2917H101.636C101.457 84.2917 101.309 84.1439 101.309 83.9645V71.9131C101.309 71.7337 101.457 71.5859 101.636 71.5859H136.542C136.721 71.5859 136.869 71.7337 136.869 71.9131V83.9645C136.863 84.1439 136.721 84.2917 136.542 84.2917ZM101.731 83.8696H136.441V72.0081H101.731V83.8696Z" fill="#005685"/>
<path d="M85.6248 84.2917H64.6054C64.4262 84.2917 64.2786 84.1439 64.2786 83.9645V71.9131C64.2786 71.7337 64.4262 71.5859 64.6054 71.5859H85.6248C85.8041 71.5859 85.9517 71.7337 85.9517 71.9131V83.9645C85.9464 84.1439 85.8041 84.2917 85.6248 84.2917ZM64.7003 83.8696H85.5246V72.0081H64.7003V83.8696Z" fill="#005685"/>
<path d="M62.5916 83.843H53.9666C53.8032 83.843 53.6714 83.7111 53.6714 83.5475V60.8693C53.6714 60.7532 53.7663 60.6582 53.8823 60.6582H62.6759C62.7919 60.6582 62.8868 60.7532 62.8868 60.8693V83.5475C62.8868 83.7111 62.755 83.843 62.5916 83.843ZM54.0931 83.4209H62.465V61.0803H54.0931V83.4209V83.4209Z" fill="#005685"/>
<path d="M52.3059 87.273C52.1899 87.273 52.1003 87.1833 52.0951 87.0672C52.0898 86.9195 51.726 72.0134 51.1883 69.085C50.9774 67.9453 50.1444 67.2171 48.7104 66.9216C47.6033 66.6948 46.5384 66.8214 46.5278 66.8267C46.4119 66.8425 46.3064 66.7581 46.2906 66.642C46.2748 66.5259 46.3591 66.4204 46.4751 66.4045C46.5226 66.3993 47.6086 66.2674 48.7843 66.5048C50.3869 66.8319 51.3622 67.6973 51.5995 69.0058C52.1425 71.9659 52.501 86.4393 52.5168 87.0567C52.5168 87.1727 52.4272 87.273 52.3059 87.273Z" fill="#005685"/>
<path d="M99.4427 84.2909H87.702C87.5281 84.2909 87.3857 84.1485 87.3857 83.9744V60.8634C87.3857 60.7473 87.4806 60.6523 87.5966 60.6523H99.5482C99.6642 60.6523 99.759 60.7473 99.759 60.8634V83.9744C99.759 84.1485 99.6167 84.2909 99.4427 84.2909ZM87.8075 83.8688H99.3373V61.0797H87.8075V83.8688Z" fill="#005685"/>
<path d="M116.223 64.5167C114.215 64.5167 112.58 62.881 112.58 60.8707C112.58 58.8603 114.215 57.2246 116.223 57.2246C118.232 57.2246 119.866 58.8603 119.866 60.8707C119.866 62.881 118.232 64.5167 116.223 64.5167ZM116.223 57.6467C114.447 57.6467 113.002 59.0925 113.002 60.8707C113.002 62.6488 114.447 64.0946 116.223 64.0946C118 64.0946 119.445 62.6488 119.445 60.8707C119.445 59.0925 118 57.6467 116.223 57.6467Z" fill="#005685"/>
<path d="M70.2465 64.5167C68.2379 64.5167 66.6035 62.881 66.6035 60.8707C66.6035 58.8603 68.2379 57.2246 70.2465 57.2246C72.2551 57.2246 73.8894 58.8603 73.8894 60.8707C73.8894 62.881 72.2604 64.5167 70.2465 64.5167ZM70.2465 57.6467C68.4698 57.6467 67.0253 59.0925 67.0253 60.8707C67.0253 62.6488 68.4698 64.0946 70.2465 64.0946C72.0231 64.0946 73.4677 62.6488 73.4677 60.8707C73.4677 59.0925 72.0231 57.6467 70.2465 57.6467Z" fill="#005685"/>
<path d="M51.9316 83.8442H45.1571C44.5298 83.8442 44.0026 83.3746 43.934 82.752L43.7653 81.2587C43.7126 80.7997 44.0236 80.2615 44.4507 80.0557C44.7459 79.9132 45.0411 79.9554 45.2573 80.1718C45.2784 80.1929 45.2942 80.2193 45.3047 80.2457L45.6158 81.0582V81.0635L46.0006 82.1768H52.0265C52.0845 82.1768 52.1425 82.2032 52.1794 82.2454C52.2216 82.2876 52.2374 82.3457 52.2374 82.4037L52.1425 83.6543C52.1372 83.7598 52.0423 83.8442 51.9316 83.8442ZM44.7881 80.3934C44.7459 80.3934 44.6932 80.4039 44.6352 80.4356C44.3927 80.5517 44.1502 80.8999 44.1871 81.2112L44.3558 82.7045C44.4032 83.1161 44.7459 83.4221 45.1571 83.4221H51.7366L51.7998 82.5937H45.8583C45.7687 82.5937 45.6896 82.5356 45.658 82.4512L45.2257 81.2007L44.9304 80.4409C44.8988 80.4145 44.8566 80.3934 44.7881 80.3934Z" fill="#005685"/>
<path d="M64.9218 61.0803H62.6759C62.5599 61.0803 62.465 60.9853 62.465 60.8693C62.465 60.7532 62.5599 60.6582 62.6759 60.6582H64.9218C65.0378 60.6582 65.1327 60.7532 65.1327 60.8693C65.1327 60.9853 65.0378 61.0803 64.9218 61.0803Z" fill="#005685"/>
<path d="M110.893 61.0803H99.5482C99.4322 61.0803 99.3373 60.9853 99.3373 60.8693C99.3373 60.7532 99.4322 60.6582 99.5482 60.6582H110.893C111.009 60.6582 111.104 60.7532 111.104 60.8693C111.104 60.9853 111.009 61.0803 110.893 61.0803Z" fill="#005685"/>
<path d="M166.776 87.2737H20.9165C20.8006 87.2737 20.7057 87.1787 20.7057 87.0626C20.7057 86.9465 20.8006 86.8516 20.9165 86.8516H166.776C166.892 86.8516 166.987 86.9465 166.987 87.0626C166.987 87.1787 166.892 87.2737 166.776 87.2737Z" fill="#005685"/>
</svg>

<svg xmlns="http://www.w3.org/2000/svg" width="184" height="146" fill="none"><path fill="#005685" d="M48.194 82.593a.213.213 0 0 1-.206-.17c-.949-4.39-1.376-11.022-1.566-15.808-.063-1.588-.11-3.223-.137-4.86a2.935 2.935 0 0 1 .85-2.13 2.95 2.95 0 0 1 2.118-.893H65.28a.212.212 0 0 1 0 .422H49.253c-.69 0-1.333.27-1.818.766-.48.49-.739 1.14-.728 1.83.026 1.631.069 3.261.137 4.85.19 4.77.617 11.376 1.555 15.74a.212.212 0 0 1-.163.253h-.042ZM135.429 87.273h-84.71c-.986 0-1.777-1.171-2.42-3.583a.212.212 0 0 1 .148-.258.212.212 0 0 1 .258.147c.57 2.137 1.265 3.267 2.014 3.267h84.71a3.582 3.582 0 0 0 3.58-3.573V64.13a3.56 3.56 0 0 0-1.893-3.15l-2.641-1.409a3.463 3.463 0 0 0-1.676-.416h-11.604a.212.212 0 0 1-.211-.212c0-.116.095-.21.211-.21h11.604a3.91 3.91 0 0 1 1.876.469l2.636 1.409a3.982 3.982 0 0 1 2.114 3.524V83.28c.006 2.2-1.792 3.994-3.996 3.994ZM111.015 59.158H75.223a.212.212 0 0 1 0-.422h35.792c.116 0 .211.095.211.211a.212.212 0 0 1-.211.211Z"/><path fill="#005685" d="M116.223 66.415a5.55 5.55 0 0 1-5.54-5.545c0-3.055 2.483-5.546 5.54-5.546a5.55 5.55 0 0 1 5.541 5.546 5.55 5.55 0 0 1-5.541 5.545Zm0-10.669a5.13 5.13 0 0 0-5.119 5.124 5.13 5.13 0 0 0 5.119 5.123 5.13 5.13 0 0 0 5.119-5.123 5.126 5.126 0 0 0-5.119-5.124ZM70.246 66.415a5.55 5.55 0 0 1-5.54-5.545 5.55 5.55 0 0 1 5.54-5.546 5.55 5.55 0 0 1 5.541 5.546 5.55 5.55 0 0 1-5.54 5.545Zm0-10.669a5.13 5.13 0 0 0-5.119 5.124 5.13 5.13 0 0 0 5.12 5.123 5.123 5.123 0 0 0 0-10.247ZM136.542 84.292h-34.906a.329.329 0 0 1-.327-.328v-12.05c0-.18.148-.328.327-.328h34.906c.179 0 .327.148.327.327v12.052a.333.333 0 0 1-.327.327Zm-34.811-.422h34.71V72.008h-34.71V83.87ZM85.625 84.292h-21.02a.329.329 0 0 1-.326-.328v-12.05c0-.18.147-.328.326-.328h21.02c.18 0 .327.148.327.327v12.052a.332.332 0 0 1-.327.327ZM64.7 83.87h20.825V72.008H64.7V83.87ZM62.592 83.843h-8.625a.295.295 0 0 1-.296-.296V60.87c0-.116.095-.21.211-.21h8.794c.116 0 .21.094.21.21v22.678a.295.295 0 0 1-.294.296Zm-8.499-.422h8.372V61.08h-8.372v22.34ZM52.306 87.273a.21.21 0 0 1-.21-.206c-.006-.147-.37-15.054-.908-17.982-.21-1.14-1.044-1.868-2.478-2.163a7.437 7.437 0 0 0-2.182-.095.213.213 0 0 1-.053-.422c.048-.006 1.134-.138 2.31.1 1.602.327 2.577 1.192 2.815 2.5.542 2.96.901 17.434.917 18.052 0 .116-.09.216-.211.216ZM99.443 84.29H87.702a.317.317 0 0 1-.316-.316v-23.11c0-.117.095-.212.21-.212h11.952c.116 0 .211.095.211.211v23.111a.317.317 0 0 1-.316.317Zm-11.635-.421h11.53v-22.79h-11.53v22.79Z"/><path fill="#005685" d="M116.223 64.517a3.65 3.65 0 0 1-3.643-3.646 3.65 3.65 0 0 1 3.643-3.646 3.649 3.649 0 0 1 3.643 3.646 3.649 3.649 0 0 1-3.643 3.646Zm0-6.87a3.226 3.226 0 0 0-3.221 3.224 3.226 3.226 0 0 0 3.221 3.224 3.226 3.226 0 0 0 3.222-3.224 3.226 3.226 0 0 0-3.222-3.224ZM70.246 64.517a3.649 3.649 0 0 1-3.642-3.646 3.649 3.649 0 0 1 3.642-3.646 3.645 3.645 0 0 1 0 7.292Zm0-6.87a3.226 3.226 0 0 0-3.22 3.224 3.226 3.226 0 0 0 3.22 3.224 3.226 3.226 0 0 0 3.222-3.224 3.226 3.226 0 0 0-3.222-3.224ZM51.932 83.844h-6.775c-.627 0-1.154-.47-1.223-1.092l-.169-1.493c-.052-.46.259-.998.686-1.203.295-.143.59-.1.806.116a.22.22 0 0 1 .048.074l.31.812v.005l.386 1.114h6.026c.057 0 .115.026.152.068.043.043.058.1.058.159l-.095 1.25c-.005.106-.1.19-.21.19Zm-7.144-3.45a.32.32 0 0 0-.153.042c-.242.116-.485.464-.448.775l.169 1.493c.047.412.39.718.801.718h6.58l.063-.828h-5.942a.216.216 0 0 1-.2-.143l-.432-1.25-.296-.76a.208.208 0 0 0-.142-.048ZM64.922 61.08h-2.246a.212.212 0 0 1-.211-.21c0-.117.095-.212.21-.212h2.247c.116 0 .21.095.21.211a.212.212 0 0 1-.21.211ZM110.893 61.08H99.548a.212.212 0 0 1-.21-.21c0-.117.094-.212.21-.212h11.345c.116 0 .211.095.211.211a.212.212 0 0 1-.211.211ZM166.776 87.274H20.916a.212.212 0 0 1 0-.422h145.86c.116 0 .211.094.211.21a.212.212 0 0 1-.211.212Z"/></svg>
